dist/img/news-vk.svg

<svg width="40" height="41" viewBox="0 0 40 41" fill="none" xmlns="http://www.w3.org/2000/svg">
<g clip-path="url(#clip0_1409_27847)">
<path d="M20.0008 0.982422C9.39678 0.982422 0.800781 9.57842 0.800781 20.1824C0.800781 30.7864 9.39678 39.3824 20.0008 39.3824C30.6048 39.3824 39.2008 30.7864 39.2008 20.1824C39.2008 9.57842 30.6048 0.982422 20.0008 0.982422ZM27.3848 22.6444C27.3848 22.6444 29.0828 24.3204 29.5008 25.0984C29.5128 25.1144 29.5188 25.1304 29.5228 25.1384C29.6928 25.4244 29.7328 25.6464 29.6488 25.8124C29.5088 26.0884 29.0288 26.2244 28.8648 26.2364H25.8648C25.6568 26.2364 25.2208 26.1824 24.6928 25.8184C24.2868 25.5344 23.8868 25.0684 23.4968 24.6144C22.9148 23.9384 22.4108 23.3544 21.9028 23.3544C21.8383 23.3543 21.7741 23.3644 21.7128 23.3844C21.3288 23.5084 20.8368 24.0564 20.8368 25.5164C20.8368 25.9724 20.4768 26.2344 20.2228 26.2344H18.8488C18.3808 26.2344 15.9428 26.0704 13.7828 23.7924C11.1388 21.0024 8.75878 15.4064 8.73878 15.3544C8.58878 14.9924 8.89878 14.7984 9.23678 14.7984H12.2668C12.6708 14.7984 12.8028 15.0444 12.8948 15.2624C13.0028 15.5164 13.3988 16.5264 14.0488 17.6624C15.1028 19.5144 15.7488 20.2664 16.2668 20.2664C16.3639 20.2653 16.4593 20.2406 16.5448 20.1944C17.2208 19.8184 17.0948 17.4084 17.0648 16.9084C17.0648 16.8144 17.0628 15.8304 16.7168 15.3584C16.4688 15.0164 16.0468 14.8864 15.7908 14.8384C15.8944 14.6954 16.0309 14.5795 16.1888 14.5004C16.6528 14.2684 17.4888 14.2344 18.3188 14.2344H18.7808C19.6808 14.2464 19.9128 14.3044 20.2388 14.3864C20.8988 14.5444 20.9128 14.9704 20.8548 16.4284C20.8368 16.8424 20.8188 17.3104 20.8188 17.8624C20.8188 17.9824 20.8128 18.1104 20.8128 18.2464C20.7928 18.9884 20.7688 19.8304 21.2928 20.1764C21.3611 20.2193 21.4401 20.2421 21.5208 20.2424C21.7028 20.2424 22.2508 20.2424 23.7348 17.6964C24.1925 16.8769 24.5902 16.0254 24.9248 15.1484C24.9548 15.0964 25.0428 14.9364 25.1468 14.8744C25.2235 14.8353 25.3086 14.8154 25.3948 14.8164H28.9568C29.3448 14.8164 29.6108 14.8744 29.6608 15.0244C29.7488 15.2624 29.6448 15.9884 28.0188 18.1904L27.2928 19.1484C25.8188 21.0804 25.8188 21.1784 27.3848 22.6444Z" fill="#0084CF"/>
</g>
<defs>
<clipPath id="clip0_1409_27847">
<rect width="40" height="40" fill="white" transform="translate(0 0.185547)"/>
</clipPath>
</defs>
</svg>

<svg width="40" height="41" viewBox="0 0 40 41" fill="none" xmlns="http://www.w3.org/2000/svg"><g clip-path="url(#clip0_1409_27847)"><path d="M20 .982C9.398.982.8 9.578.8 20.182s8.597 19.2 19.2 19.2c10.605 0 19.2-8.596 19.2-19.2S30.606.982 20 .982zm7.385 21.662s1.698 1.676 2.116 2.454c.012.016.018.032.022.04.17.286.21.508.126.674-.14.276-.62.412-.784.424h-3c-.208 0-.644-.054-1.172-.418-.406-.284-.806-.75-1.196-1.204-.582-.676-1.086-1.26-1.594-1.26a.61.61 0 00-.19.03c-.384.124-.876.672-.876 2.132 0 .456-.36.718-.614.718h-1.374c-.468 0-2.906-.164-5.066-2.442-2.644-2.79-5.024-8.386-5.044-8.438-.15-.362.16-.556.498-.556h3.03c.404 0 .536.246.628.464.108.254.504 1.264 1.154 2.4 1.054 1.852 1.7 2.604 2.218 2.604a.599.599 0 00.278-.072c.676-.376.55-2.786.52-3.286 0-.094-.002-1.078-.348-1.55-.248-.342-.67-.472-.926-.52a1.1 1.1 0 01.398-.338c.464-.232 1.3-.266 2.13-.266h.462c.9.012 1.132.07 1.458.152.66.158.674.584.616 2.042-.018.414-.036.882-.036 1.434 0 .12-.006.248-.006.384-.02.742-.044 1.584.48 1.93a.432.432 0 00.228.066c.182 0 .73 0 2.214-2.546.457-.82.855-1.67 1.19-2.548.03-.052.118-.212.222-.274a.532.532 0 01.248-.058h3.562c.388 0 .654.058.704.208.088.238-.016.964-1.642 3.166l-.726.958c-1.474 1.932-1.474 2.03.092 3.496z" fill="#0084CF"/></g><defs><clipPath id="clip0_1409_27847"><path fill="#fff" transform="translate(0 .186)" d="M0 0h40v40H0z"/></clipPath></defs></svg>
